X: 1
T:THE STIRLINGSHIRE MILITIA
M:C|
L:1/8
Q:80
C:H. MacKay
S:March
K:HP
|: {ag}a|
{AGAG}A{gef}e3/4A/4{gcd}c{g}B/4{d}A3/4|
{g}A3/4B/4{GdG}c/4a3/4{ef}e{g}c/4{d}A3/4|  !
{gAGAG}Aa3/4f/4{g}e3/4f/4{gef}e3/4A/4|
{gcd}c{g}B{GdGe}B{ag}a|
{AGAG}A{gef}e3/4A/4{gcd}c{g}B/4{d}A3/4|  !
{g}A3/4B/4{GdG}c/4a3/4{ef}e{g}c/4{d}A3/4|
{gAGAG}Aa3/4f/4{g}e3/4f/4{g}B3/4e/4|
{gcd}c{e}A{GAG}A:| |:  !
{g}f/4g3/4|
a3/4e/4{g}f/4a3/4{fg}f{g}e3/4c/4|
{gef}ea3/4e/4{gfg}f{g}e3/4c/4|  !
{g}e3/2f/2{g}e3/4f/4{gef}e3/4A/4|
{gcd}c{g}B{GdGe}B{g}f/4g3/4|
a3/4e/4{g}f/4a3/4{fg}f{g}e3/4c/4|  !
{gef}ea3/4e/4{gfg}f{g}e3/4c/4|
{gfg}f3/4e/4a3/4f/4{g}e3/4f/4{g}B3/4e/4|
{gcd}c{e}A{GAG}A:| |:  !
{ag}a|
A{GdGe}A3/4{d}c/4{gef}e3/4A/4{g}c/4{d}A3/4|
{gef}e3/4A/4{g}c/4{d}A3/4{gcd}c{g}B/4{d}A3/4|  !
{gAGAG}Aa3/4f/4{g}e3/4f/4{gef}e3/4A/4|
{gcd}c{g}B{GdGe}B{ag}a|1
A{GdGe}A3/4{d}c/4{gef}e3/4A/4{g}c/4{d}A3/4|  !
{gef}e3/4A/4a3/4e/4{gcd}c{g}B/4{d}A3/4|
{gfg}f3/4e/4a3/4f/4{g}e3/4f/4{g}B3/4e/4|
{gcd}c{e}A{GAG}A:|2  !
A{GdGe}A3/4{d}c/4{gef}e3/4A/4{g}c/4e3/4|
{gfg}f3/4e/4a3/4e/4{gcd}c{g}B/4{d}A3/4|
{gfg}f3/4e/4a3/4f/4{g}e3/4f/4{g}B3/4e/4|  !
{gcd}c{e}A{GAG}A|] |:
{g}f/4g3/4|
a3/4e/4{g}c/4e3/4{g}A3/4e/4{gfg}f3/4e/4|  !
a3/4e/4{g}c/4e3/4{gfg}f{g}e3/4c/4|
a3/4e/4{g}c/4e3/4{g}A3/4e/4{g}c/4e3/4|
{gfg}f{g}B{GdGe}B{g}f/4g3/4|  !
a3/4e/4{g}c/4e3/4{g}A3/4e/4{gfg}f3/4e/4|
a3/4e/4{g}c/4e3/4{gfg}f{g}e3/4c/4|
{gfg}f3/4e/4a3/4f/4{g}e3/4f/4{g}B3/4e/4|  !
{gcd}c{e}A{GAG}A:|
